!!!OTL: Jingle Bells
!!!COM: Pierpont, James
!!!ODT: 1850
!!!YOR: The Christmas Fake Book, p. 59
!!!YOY: 1990
!!!AST: Christmas song
!!!YEC: Brian Luke, 2001
**kern	**harm
*k[f#]	*k[f#]
*M2/4	*M2/4
*G:	*G:
*>A	*>A
=1	=1
8d	I
8b	.
8a	.
8g	.
=2	=2
4.d	.
16d	.
16d	.
=3	=3
8d	.
8b	.
8a	.
8g	.
=4	=4
2e	IV
=5	=5
8e	ii
8cc	.
8b	.
8a	.
=6	=6
2f#	V7
=7	=7
8dd	.
8dd	.
8cc	.
8a	.
=8	=8
2b	I;
*>A'	*>A'
=9	=9
8d	.
8b	.
8a	.
8g	.
=10	=10
2d	.
=11	=11
8d	.
8b	.
8a	.
8g	.
=12	=12
4.e	IV
8e	.
=13	=13
8e	ii
8cc	.
8b	.
8a	.
=14	=14
8dd	I
8dd	.
8dd	.
8dd	.
=15	=15
8ee	V7
8dd	.
8cc	.
8a	.
=16	=16
4g	I
4dd	V7;
*>B	*>B
=17	=17
8b	I
8b	.
4b	.
=18	=18
8b	.
8b	.
4b	.
=19	=19
8b	.
8dd	.
8.g	.
16a	.
=20	=20
2b	.
=21	=21
8cc	IV
8cc	.
8.cc	.
16cc	.
=22	=22
8cc	I
8b	.
8b	.
16b	.
16b	.
=23	=23
8b	V7/V
8a	.
8a	.
8b	.
=24	=24
4a	V7;
4dd	.
*>B'	*>B'
=25	=25
8b	I
8b	.
4b	.
=26	=26
8b	.
8b	.
4b	.
=27	=27
8b	.
8dd	.
8.g	.
16a	.
=28	=28
2b	.
=29	=29
8cc	IV
8cc	.
8.cc	.
16cc	.
=30	=30
8cc	I
8b	.
8b	.
16b	.
16b	.
=31	=31
8dd	V7
8dd	.
8cc	.
8a	.
=32	=32
4g	I;
4r	.
*-	*-
